packages/core/src/svgs/manc.svg

<svg width="24" height="24" viewBox="0 0 24 24" fill="none" xmlns="http://www.w3.org/2000/svg">
<g clip-path="url(#clip0_31_13500)">
<path d="M0 0H24V24H0V0Z" fill="#252060"/>
<path d="M8.47697 7.28564C7.24672 7.29132 6.06906 7.78518 5.20276 8.65871C4.33646 9.53224 3.85241 10.714 3.85697 11.9442V15.6428C3.85697 15.9269 3.96985 16.1995 4.17078 16.4004C4.37171 16.6013 4.64423 16.7142 4.92839 16.7142C5.21255 16.7142 5.48508 16.6013 5.68601 16.4004C5.88694 16.1995 5.99982 15.9269 5.99982 15.6428V12.0642C5.99982 10.6071 7.03268 9.4285 8.47697 9.4285C9.92554 9.4285 10.7141 10.6114 10.7141 12.0642V15.5228C10.7141 15.8393 10.8399 16.1429 11.0637 16.3668C11.2875 16.5906 11.5911 16.7164 11.9077 16.7164C12.2242 16.7164 12.5278 16.5906 12.7517 16.3668C12.9755 16.1429 13.1013 15.8393 13.1013 15.5228V11.9442C13.1013 9.37279 11.0313 7.28564 8.47697 7.28564Z" fill="#FDFEFA"/>
<path d="M15.5229 7.28564C12.9686 7.28564 10.7144 9.37279 10.7144 11.9442V15.4285C10.7144 15.7695 10.8498 16.0965 11.0909 16.3376C11.3321 16.5788 11.6591 16.7142 12.0001 16.7142C12.3411 16.7142 12.6681 16.5788 12.9092 16.3376C13.1503 16.0965 13.2858 15.7695 13.2858 15.4285V12.0642C13.2858 10.6071 14.0744 9.4285 15.5229 9.4285C16.9672 9.4285 18.0001 10.6114 18.0001 12.0642V15.6428C18.0001 15.9269 18.113 16.1995 18.3139 16.4004C18.5148 16.6013 18.7873 16.7142 19.0715 16.7142C19.3557 16.7142 19.6282 16.6013 19.8291 16.4004C20.03 16.1995 20.1429 15.9269 20.1429 15.6428V11.9442C20.1429 9.37279 18.0729 7.28564 15.5229 7.28564Z" fill="#FDFEFA"/>
</g>
<defs>
<clipPath id="clip0_31_13500">
<rect width="24" height="24" fill="white"/>
</clipPath>
</defs>
</svg>

<svg xmlns="http://www.w3.org/2000/svg" width="24" height="24" fill="none" viewBox="0 0 24 24"><g clip-path="url(#a)"><path fill="#252060" d="M0 0h24v24H0z"/><path fill="#FDFEFA" d="M8.477 7.286a4.64 4.64 0 0 0-4.62 4.658v3.699a1.071 1.071 0 0 0 2.143 0v-3.579c0-1.457 1.033-2.636 2.477-2.636 1.449 0 2.237 1.183 2.237 2.636v3.459a1.194 1.194 0 0 0 2.387 0v-3.579c0-2.571-2.07-4.658-4.624-4.658"/><path fill="#FDFEFA" d="M15.523 7.286c-2.554 0-4.809 2.087-4.809 4.658v3.484a1.286 1.286 0 1 0 2.572 0v-3.364c0-1.457.788-2.636 2.237-2.636 1.444 0 2.477 1.183 2.477 2.636v3.579a1.072 1.072 0 0 0 2.143 0v-3.699c0-2.571-2.07-4.658-4.62-4.658"/></g><defs><clipPath id="a"><path fill="#fff" d="M0 0h24v24H0z"/></clipPath></defs></svg>
